Obsidian/status/16s/pidgin-tray-offline.svg

<svg height="16" width="16" xmlns="http://www.w3.org/2000/svg"><path d="m13 2s2 0 2 2v6c0 2-2 2-2 2h-1l-2 3-2-3h-5c-1.108 0-2-.89-2-2v-6c0-2 1.969-2 1.969-2z" fill="#d3dae3" opacity=".3"/></svg>

<svg xmlns="http://www.w3.org/2000/svg" width="16" height="16" version="1.1">
 <defs>
  <style id="current-color-scheme" type="text/css">
   .ColorScheme-Text { color:#d3dae3; } .ColorScheme-Highlight { color:#5294e2; }
  </style>
 </defs>
 <path style="opacity:0.3;fill:currentColor" class="ColorScheme-Text" d="M 13,2 C 13,2 15,2 15,4 V 10 C 15,12 13,12 13,12 H 12 L 10,15 8,12 H 3 C 1.892,12 1,11.11 1,10 V 4 C 1,2 2.969,2 2.969,2 Z"/>
</svg>
